assets/images/page/contact/icons/insta.svg

<svg width="20" height="20" viewBox="0 0 20 20" fill="none" xmlns="http://www.w3.org/2000/svg">
<path d="M2.88343 19.6842H16.8008C18.3907 19.6842 19.6842 18.3907 19.6842 16.8008V2.88343C19.6842 1.29349 18.3907 0 16.8008 0H2.88343C1.29349 0 0 1.29349 0 2.88343V16.8008C0 18.3907 1.29349 19.6842 2.88343 19.6842ZM1.15337 2.88343C1.15337 1.92949 1.92949 1.15337 2.88343 1.15337H16.8008C17.7547 1.15337 18.5308 1.92949 18.5308 2.88343V16.8008C18.5308 17.7547 17.7547 18.5308 16.8008 18.5308H2.88343C1.92949 18.5308 1.15337 17.7547 1.15337 16.8008V2.88343Z" fill="#00003F"/>
<path d="M9.84252 15.0322C12.7043 15.0322 15.0327 12.7038 15.0327 9.84203C15.0327 6.98022 12.7043 4.65186 9.84252 4.65186C6.98071 4.65186 4.65234 6.98022 4.65234 9.84203C4.65234 12.7038 6.98071 15.0322 9.84252 15.0322ZM9.84252 5.80523C12.0685 5.80523 13.8793 7.61608 13.8793 9.84203C13.8793 12.068 12.0685 13.8788 9.84252 13.8788C7.61657 13.8788 5.80572 12.068 5.80572 9.84203C5.80572 7.61608 7.61657 5.80523 9.84252 5.80523Z" fill="#00003F"/>
<path d="M15.609 5.80533C16.5629 5.80533 17.339 5.02921 17.339 4.07527C17.339 3.12134 16.5629 2.34521 15.609 2.34521C14.655 2.34521 13.8789 3.12134 13.8789 4.07527C13.8789 5.02921 14.655 5.80533 15.609 5.80533ZM15.609 3.49859C15.9269 3.49859 16.1856 3.75734 16.1856 4.07527C16.1856 4.3932 15.9269 4.65196 15.609 4.65196C15.291 4.65196 15.0323 4.3932 15.0323 4.07527C15.0323 3.75734 15.291 3.49859 15.609 3.49859Z" fill="#00003F"/>
</svg>

<svg width="20" height="20" fill="none" xmlns="http://www.w3.org/2000/svg"><path d="M2.883 19.684h13.918a2.887 2.887 0 0 0 2.883-2.883V2.883A2.887 2.887 0 0 0 16.801 0H2.883A2.887 2.887 0 0 0 0 2.883v13.918a2.887 2.887 0 0 0 2.883 2.883Zm-1.73-16.8c0-.955.776-1.73 1.73-1.73h13.918c.954 0 1.73.775 1.73 1.73V16.8c0 .954-.776 1.73-1.73 1.73H2.883c-.954 0-1.73-.776-1.73-1.73V2.883Z" fill="#00003F"/><path d="M9.843 15.032a5.196 5.196 0 0 0 5.19-5.19 5.196 5.196 0 0 0-5.19-5.19 5.196 5.196 0 0 0-5.19 5.19 5.196 5.196 0 0 0 5.19 5.19Zm0-9.227a4.041 4.041 0 0 1 4.036 4.037 4.041 4.041 0 0 1-4.036 4.037 4.041 4.041 0 0 1-4.037-4.037 4.041 4.041 0 0 1 4.037-4.037Zm5.766 0c.954 0 1.73-.776 1.73-1.73s-.776-1.73-1.73-1.73-1.73.776-1.73 1.73.776 1.73 1.73 1.73Zm0-2.306a.577.577 0 1 1-.002 1.154.577.577 0 0 1 .002-1.154Z" fill="#00003F"/></svg>
